X:1045
T:Mountains of Mourne, The
C:Joe Buchanan's Scottish Tome - Page 633.1
I:633 1
Z:Carl Allison
C:Pride of Erin Waltz
R:Waltz
L:1/4
M:3/4
K:F
C | "F"C A>A | "F7"A G F | "Bb"G F F | "Gm"F2 D/D/ | "C7"D C | C D E | "F"G F F | F2 C |
C A>A | "F7"A G F | "Bb"G F F | "Gm"F2 D D | "C7"D C C | C D E | "F"G F F | F2 C |
"C7"C B>B | B c B | "F"B A G | A2 A/G/ | F A c | "F7"c B A | "Bb"A G F | "C7"G2 C/C/ |
"F"C A>A | "F7"A G F | "Bb"F G A | "Gm"B2 D/D/ | "C7"D C C | C D E | "Bb"G F F | F2 |]

